X:1
T:[ID 6-73]
T:[ID 6-73]
T:Bezeichnung standardisiert: Polonaise Polonoise 18.
T:Urheber unbekannt Datum in der hier transkribierten schriftlichen Quelle: 1775
C:Urheber unbekannt
C:Datum in der hier transkribierten schriftlichen Quelle: 1775
L:1/8
M:3/4
K:A
V:1 treble 
V:1
 cA/E/ CCCC | CcB/c/d/B/ d2 | CA A2 G2 | GB B2 A2 | Ac c2 B2 | Bd d2 c2 | c/A/B/c/ c/A/B/c/ cd | %7
 c/A/B/G/ C2 C2 :: cG/E/ GGGG | GE F/G/A/F/ G2 | G/A/B/c/ ^df eA/G/ | F/G/A/F/ GF G2 | %12
"^1)" x A/B/ c2 c2 | cBBA A2 | C/E/A/B/ c2 c2 | cBBA A2 | c/A/B/c/ c/A/B/c/ cd | c/A/B/G/ C2 C2 :| %18

